dist/img/logo.svg

<svg width="84" height="28" viewBox="0 0 84 28" fill="none" xmlns="http://www.w3.org/2000/svg">
<path d="M19.6152 9.17578C19.2051 7.40625 18.2031 6.16992 16.6094 5.4668C15.7188 5.08008 14.7285 4.88672 13.6387 4.88672C11.5527 4.88672 9.83594 5.67773 8.48828 7.25977C7.15234 8.83008 6.48438 11.1973 6.48438 14.3613C6.48438 17.5488 7.21094 19.8047 8.66406 21.1289C10.1172 22.4531 11.7695 23.1152 13.6211 23.1152C15.4375 23.1152 16.9258 22.5938 18.0859 21.5508C19.2461 20.4961 19.9609 19.1191 20.2305 17.4199H14.2363V13.0957H25.0293V27H21.4434L20.8984 23.7656C19.8555 24.9961 18.918 25.8633 18.0859 26.3672C16.6562 27.2461 14.8984 27.6855 12.8125 27.6855C9.37891 27.6855 6.56641 26.4961 4.375 24.1172C2.08984 21.7266 0.947266 18.457 0.947266 14.3086C0.947266 10.1133 2.10156 6.75 4.41016 4.21875C6.71875 1.6875 9.77148 0.421875 13.5684 0.421875C16.8613 0.421875 19.5039 1.25977 21.4961 2.93555C23.5 4.59961 24.6484 6.67969 24.9414 9.17578H19.6152ZM40.2168 7.38281C40.3105 7.38281 40.3867 7.38867 40.4453 7.40039C40.5156 7.40039 40.6621 7.40625 40.8848 7.41797V12.5508C40.5684 12.5156 40.2871 12.4922 40.041 12.4805C39.7949 12.4688 39.5957 12.4629 39.4434 12.4629C37.4277 12.4629 36.0742 13.1191 35.3828 14.4316C34.9961 15.1699 34.8027 16.3066 34.8027 17.8418V27H29.7578V7.83984H34.5391V11.1797C35.3125 9.90234 35.9863 9.0293 36.5605 8.56055C37.498 7.77539 38.7168 7.38281 40.2168 7.38281ZM52.4336 23.4668C53.8984 23.4668 55.0234 22.9453 55.8086 21.9023C56.5938 20.8594 56.9863 19.377 56.9863 17.4551C56.9863 15.5332 56.5938 14.0566 55.8086 13.0254C55.0234 11.9824 53.8984 11.4609 52.4336 11.4609C50.9688 11.4609 49.8379 11.9824 49.041 13.0254C48.2559 14.0566 47.8633 15.5332 47.8633 17.4551C47.8633 19.377 48.2559 20.8594 49.041 21.9023C49.8379 22.9453 50.9688 23.4668 52.4336 23.4668ZM62.2422 17.4551C62.2422 20.2676 61.4336 22.6758 59.8164 24.6797C58.1992 26.6719 55.7441 27.668 52.4512 27.668C49.1582 27.668 46.7031 26.6719 45.0859 24.6797C43.4688 22.6758 42.6602 20.2676 42.6602 17.4551C42.6602 14.6895 43.4688 12.293 45.0859 10.2656C46.7031 8.23828 49.1582 7.22461 52.4512 7.22461C55.7441 7.22461 58.1992 8.23828 59.8164 10.2656C61.4336 12.293 62.2422 14.6895 62.2422 17.4551ZM65.793 1.17773H70.7148V15.1348L76.9551 7.92773H83.1602L76.4629 15.2578L83.4238 27H77.377L72.7891 18.8086L70.7148 20.9707V27H65.793V1.17773Z" fill="black"/>
</svg>

<svg width="84" height="28" fill="none" xmlns="http://www.w3.org/2000/svg"><path d="M19.615 9.176c-.41-1.77-1.412-3.006-3.006-3.71-.89-.386-1.88-.58-2.97-.58-2.086 0-3.803.792-5.15 2.374-1.337 1.57-2.005 3.937-2.005 7.101 0 3.188.727 5.444 2.18 6.768 1.453 1.324 3.106 1.986 4.957 1.986 1.816 0 3.305-.521 4.465-1.564 1.16-1.055 1.875-2.432 2.145-4.131h-5.995v-4.324H25.03V27h-3.586l-.545-3.234c-1.043 1.23-1.98 2.097-2.812 2.601-1.43.88-3.188 1.319-5.273 1.319-3.434 0-6.247-1.19-8.438-3.569C2.09 21.727.947 18.457.947 14.31c0-4.196 1.155-7.559 3.463-10.09C6.72 1.687 9.771.422 13.568.422c3.293 0 5.936.838 7.928 2.514C23.5 4.6 24.648 6.68 24.941 9.176h-5.326zm20.602-1.793c.093 0 .17.006.228.017.07 0 .217.006.44.018v5.133a13.54 13.54 0 00-1.442-.088c-2.015 0-3.369.656-4.06 1.969-.387.738-.58 1.875-.58 3.41V27h-5.045V7.84h4.781v3.34c.773-1.278 1.447-2.15 2.021-2.62.938-.785 2.157-1.177 3.657-1.177zm12.217 16.084c1.464 0 2.59-.522 3.375-1.565.785-1.043 1.177-2.525 1.177-4.447 0-1.922-.392-3.398-1.177-4.43-.786-1.043-1.91-1.564-3.375-1.564s-2.596.521-3.393 1.564c-.785 1.032-1.178 2.508-1.178 4.43 0 1.922.393 3.404 1.178 4.447.797 1.043 1.928 1.565 3.393 1.565zm9.808-6.012c0 2.813-.808 5.22-2.426 7.225-1.617 1.992-4.072 2.988-7.365 2.988s-5.748-.996-7.365-2.988c-1.617-2.004-2.426-4.412-2.426-7.225 0-2.765.809-5.162 2.426-7.19 1.617-2.027 4.072-3.04 7.365-3.04s5.748 1.013 7.365 3.04c1.618 2.028 2.426 4.425 2.426 7.19zm3.551-16.277h4.922v13.957l6.24-7.207h6.205l-6.697 7.33L83.423 27h-6.046l-4.588-8.191-2.074 2.162V27h-4.922V1.178z" fill="#000"/></svg>
